images/trashcan.svg

<?xml version="1.0" encoding="utf-8"?><!-- Uploaded to: SVG Repo, www.svgrepo.com, Generator: SVG Repo Mixer Tools -->
<svg width="800px" height="800px" viewBox="0 0 24 24" fill="none" xmlns="http://www.w3.org/2000/svg">
<path d="M5 6.77273H9.2M19 6.77273H14.8M9.2 6.77273V5.5C9.2 4.94772 9.64772 4.5 10.2 4.5H13.8C14.3523 4.5 14.8 4.94772 14.8 5.5V6.77273M9.2 6.77273H14.8M6.4 8.59091V15.8636C6.4 17.5778 6.4 18.4349 6.94673 18.9675C7.49347 19.5 8.37342 19.5 10.1333 19.5H13.8667C15.6266 19.5 16.5065 19.5 17.0533 18.9675C17.6 18.4349 17.6 17.5778 17.6 15.8636V8.59091M9.2 10.4091V15.8636M12 10.4091V15.8636M14.8 10.4091V15.8636" stroke="#464455" stroke-linecap="round" stroke-linejoin="round"/>
</svg>

<svg xmlns="http://www.w3.org/2000/svg" width="800" height="800" fill="none" viewBox="0 0 24 24"><path stroke="#464455" stroke-linecap="round" stroke-linejoin="round" d="M5 6.773h4.2m9.8 0h-4.2m-5.6 0V5.5a1 1 0 0 1 1-1h3.6a1 1 0 0 1 1 1v1.273m-5.6 0h5.6M6.4 8.59v7.273c0 1.714 0 2.57.547 3.104.546.532 1.426.532 3.186.532h3.734c1.76 0 2.64 0 3.186-.532.547-.533.547-1.39.547-3.104V8.59m-8.4 1.818v5.455m2.8-5.455v5.455m2.8-5.455v5.455"/></svg>
